Images/facebook.svg

<?xml version="1.0" encoding="UTF-8"?><!DOCTYPE svg PUBLIC "-//W3C//DTD SVG 1.1//EN" "http://www.w3.org/Graphics/SVG/1.1/DTD/svg11.dtd"><svg xmlns="http://www.w3.org/2000/svg" xmlns:xlink="http://www.w3.org/1999/xlink" version="1.1" id="Layer_1" x="0px" y="0px" width="127.999px" height="128px" viewBox="0 0 127.999 128" xml:space="preserve"><style type="text/css"><![CDATA[
	.st0{fill:#231F20;}
]]></style><path class="st0" d="M64 7.989c-30.885 0-56.01 25.126-56.01 56.01 0 30.885 25.125 56.012 56.01 56.012 30.883 0 56.01-25.127 56.01-56.012 0-30.884-25.127-56.01-56.01-56.01zm15.83 35.358a1 1 0 0 1-1 1l-6.367.004c-4.201 0-4.969 1.636-4.969 4.858v6.684h10.92c.287 0 .561.124.75.34s.277.503.242.788l-1.555 12.033a1 1 0 0 1-.992.872h-9.365v29.879a1 1 0 0 1-1 1H54.07a1 1 0 0 1-1-1V69.926h-9.395a1 1 0 0 1-1-1V56.893a1 1 0 0 1 1-1h9.395v-7.875c0-10.43 6.312-16.908 16.475-16.908 4.369 0 8.23.325 9.416.482a1 1 0 0 1 .869.991v10.764z" fill="#231F20"/><metadata><rdf:RDF xmlns:rdf="http://www.w3.org/1999/02/22-rdf-syntax-ns#" xmlns:rdfs="http://www.w3.org/2000/01/rdf-schema#" xmlns:dc="http://purl.org/dc/elements/1.1/"><rdf:Description about="https://iconscout.com/legal#licenses" dc:title="social,networks,networks-" dc:description="social,networks,networks-" dc:publisher="Iconscout" dc:date="2018-01-30" dc:format="image/svg+xml" dc:language="en"><dc:creator><rdf:Bag><rdf:li>Roundicons.com</rdf:li></rdf:Bag></dc:creator></rdf:Description></rdf:RDF></metadata></svg>

<?xml version="1.0" encoding="UTF-8" standalone="no"?>
<!DOCTYPE svg PUBLIC "-//W3C//DTD SVG 1.1//EN" "http://www.w3.org/Graphics/SVG/1.1/DTD/svg11.dtd">
<svg width="100%" height="100%" viewBox="0 0 128 128" version="1.1" xmlns="http://www.w3.org/2000/svg" xmlns:xlink="http://www.w3.org/1999/xlink" xml:space="preserve" xmlns:serif="http://www.serif.com/" style="fill-rule:evenodd;clip-rule:evenodd;stroke-linejoin:round;stroke-miterlimit:2;">
    <path d="M64,7.989C33.115,7.989 7.99,33.115 7.99,63.999C7.99,94.884 33.115,120.011 64,120.011C94.883,120.011 120.01,94.884 120.01,63.999C120.01,33.115 94.883,7.989 64,7.989ZM79.83,43.347C79.83,43.896 79.379,44.347 78.83,44.347L72.463,44.351C68.262,44.351 67.494,45.987 67.494,49.209L67.494,55.893L78.414,55.893C78.701,55.893 78.975,56.017 79.164,56.233C79.353,56.449 79.441,56.736 79.406,57.021L77.851,69.054C77.787,69.55 77.36,69.926 76.859,69.926L67.494,69.926L67.494,99.805C67.494,100.354 67.043,100.805 66.494,100.805L54.07,100.805C53.521,100.805 53.07,100.354 53.07,99.805L53.07,69.926L43.675,69.926C43.126,69.926 42.675,69.475 42.675,68.926L42.675,56.893C42.675,56.344 43.126,55.893 43.675,55.893L53.07,55.893L53.07,48.018C53.07,37.588 59.382,31.11 69.545,31.11C73.914,31.11 77.775,31.435 78.961,31.592C79.456,31.657 79.83,32.084 79.83,32.583L79.83,43.347Z" style="fill:rgb(35,31,32);fill-rule:nonzero;"/>
</svg>
